X:1
T:Title
%%score { ( 1 3 ) | ( 2 4 ) }
L:1/8
M:3/4
K:Ab
V:1 treble nm="Grand Piano"
V:3 treble 
V:2 bass 
V:4 bass 
V:1
 z2 z2[Q:1/4=100] [CE]2 | [Ec]3 [DB] [CA]>[EG] | [DB]2 [DF]2 [EF]2 | d4 z2 |[M:2/4] [DF]2 [CE]2 | %5
[M:1/4] [CE]2 |[M:3/4] [Ee]3 [Ec] [EB]>[_GA] | [Fd]2 F2 z2 | c2 E2 z2 |[M:5/8] B2 z z2 |] %10
V:2
 z2 z2 [A,,A,]2 | [A,,A,]3 [A,,E,] [A,,E,]>[C,A,] | [D,F,]2 [D,B,]2 [C,=A,]2 | %3
 B,2 z [C,A,] [E,G,]>[E,B,] |[M:2/4] [A,,A,]2 [A,,A,]2 |[M:1/4] [A,,A,]2 | %6
[M:3/4] [C,A,]3 [A,,A,] [B,,G,]>[C,A,] | [D,A,]2 [D,A,D]2 z2 | [E,A,E]2 [E,A,C]2 z2 | %9
[M:5/8] [E,G,D]2 [A,,E,]3 |] %10
V:3
 x6 | x6 | x6 | F2 [G,E][Ec] [DB]>[DG] |[M:2/4] x4 |[M:1/4] x2 |[M:3/4] x6 | x6 | x6 | %9
[M:5/8] z z/ E,/ [CA]3 |] %10
V:4
 x6 | x6 | x6 | B,,4 z2 |[M:2/4] x4 |[M:1/4] x2 |[M:3/4] x6 | x6 | x6 |[M:5/8] x5 |] %10

